X:1
T:B. D. Ackley
T:James Rowe
T:I Am Satisfied Now
%%score { ( 1 2 ) | ( 3 4 ) }
L:1/8
M:4/4
K:Ab
V:1 treble 
V:2 treble 
V:3 bass 
V:4 bass 
V:1
{/x} E2 =DE c2 =Bc | d2 cB [EA]4 | A2 GF E2 =DE | F2 Ac B4 | E2 =DE c2 =Bc | d2 cB A4 | %6
w: On my Re\- deem\- er my|sins I have cast,|Fet\- ters are bro\- ken and|wand\- 'rings are past;|Good\- ness and mer\- cy o'er\-|came me at last,\-|
w: Vain are the calls that al\-|lure me to sin;|Nev\- er a\- gain shall the|e\- vil one win;|Sweet\- ly the Spir\- it a\-|bid\- eth with\- in;|
w: Soon I shall see Him, the|One I a\- dore,|Sing of His love on "The|Beau\- ti\- ful Shore,"|There in His pre\- sence a\-|bide ev\- er\- more\-|
 B2 B2 =dc B2 | e4-[Q:1/4=48]"^Largo" !fermata!e2"^Chorus"[Q:1/4=120]"^Allegretto" cd | %8
w: I am sat\- is\- fied|now. * I am|
w: I am sat\- is\- fied|now. * * *|
w: I am sat\- is\- fied|now. * * *|
 c<B B2 e2 Bc | B<A A2 E4 | FAGF EAGA | %11
w: sat\- is\- fied now, I am|sat\- is\- fied now;|All my sins for\- giv\- en, I am|
w: |||
w: |||
 c<B B2[Q:1/4=48]"^Largo" !fermata!B2 !fermata!c[Q:1/4=120]"^Allegretto"d | c<B B2 e2 Bc | %13
w: sat\- is\- fied now; I am|sat\- is\- fied now, I am|
w: ||
w: ||
 B<A A2 E4 | FGAB cd[Q:1/4=48]"^Largo"!fermata!ef |[Q:1/4=120]"^Allegretto" e<c B2 A4 |] %16
w: sat\- is\- fied now;|All my sins for\- giv\- en, I am|sat\- is\- fied now.|
w: |||
w: |||
V:2
 C2 =B,C E2 _DE | E2 GE z CDE | F2 ED C2 =B,C | D2 =DD E2 _D2 | C2 =B,C E2 _DE | E2 GG F4 | %6
w: ||||||
w: ||||||
w: ||||||
w: ||||||
 A2 A2 AA A2 | G>G A2 B2 EF | F<D D2 G2 GG | E<E E2 C4 | DFED CEDC | =D<D D2 E2 EF | E<D D2 G2 GG | %13
w: |||||||
w: |||||||
w: |||||||
w: |sati- is- fied now. * *||||||
 E<E E2 C4 | DDEE EEAA | A<A E2 E4 |] %16
w: |||
w: |||
w: |||
w: |||
V:3
 A,2 A,A, A,2 A,A, | B,2 ED [A,C]4 | D2 A,A, A,2 A,A, | A,2 B,A, G,4 | A,2 A,A, A,2 A,A, | %5
 B,2 ED C4 | =D2 D2 [B,F][B,E] [B,D]2 | B,>B, C2 D2 A,A, | A,<G, G,2 D2 DE | D<C C2 A,4 | %10
 A,DDA, A,A,E,E, | A,<A, A,2 !fermata!G,2 !fermata!A,A, | A,<G, G,2 D2 DE | D<C C2 A,4 | %14
 A,E,A,G, A,B,CD | C<E D2 [A,C]4 |] %16
V:4
 A,,2 A,,A,, A,,2 A,,A,, | E,2 E,E, z A,,B,,C, | D,2 D,D, A,,2 A,,A,, | D,2 B,,B,, E,4 | %4
 A,,2 A,,A,, A,,2 A,,A,, | E,2 E,E, F,4 | B,,2 B,,2 B,,B,, B,,2 | C,4- !fermata!C,2 A,,A,, | %8
 E,<E, E,2 E,2 E,E, | A,<A, A,2 A,,4 | D,D,D,D, A,,C,B,,A,, | B,,<B,, B,,2 E,2 A,,A,, | %12
 E,<E, E,2 E,2 E,E, | A,<A, A,2 A,,4 | D,B,,C,E, A,A,!fermata!A,D, | C,<C, C,2 A,,4 |] %16

